X:80
T: McGettrick's
S: J.Kelly - P.O'Brien
Z: B.Black
R: reel
M: 4/4
L: 1/8
K: G
d2 ge dBAG | (3FED AD BDAD | GFGE DEGD | FAdc BGBc |
d2 ge dBAG | (3FED AD BDAD | GFGE DEGD | FAdc BGGB ||
gedB cAAg | fdad bdad | gfge dege | dega bggf |
gedB cAAg | fdad bdad | gfge dege | dega bg g2 ||
